icons/bongo-drums.svg

<?xml version="1.0" encoding="UTF-8"?><svg id="uuid-26fd569e-ca59-4876-ae73-084f8a341445" xmlns="http://www.w3.org/2000/svg" viewBox="0 0 50 50"><path d="M48.56,17.01h-.43c-.25-1.81-1.79-3.21-3.66-3.21h-13.17c-1.88,0-3.42,1.4-3.66,3.21h-.43c-.28,0-.5,.22-.5,.5v2.72c0,.28,.22,.5,.5,.5h.06l.25,2.2h-5.03l.25-2.2h.06c.28,0,.5-.22,.5-.5v-2.72c0-.28-.22-.5-.5-.5h-.43c-.25-1.81-1.79-3.21-3.66-3.21H5.53c-1.88,0-3.42,1.4-3.66,3.21h-.43c-.28,0-.5,.22-.5,.5v2.72c0,.28,.22,.5,.5,.5h.06l1.85,16.1c.03,.25,.24,.44,.5,.44H20.39c.25,0,.47-.19,.5-.44l1-8.69h6.23l1,8.69c.03,.25,.24,.44,.5,.44h16.54c.25,0,.47-.19,.5-.44l1.85-16.1h.06c.28,0,.5-.22,.5-.5v-2.72c0-.28-.22-.5-.5-.5Zm-18.5,19.26l-1.78-15.54h4.81v2.27h-1.5c-.28,0-.5,.22-.5,.5v3.6c0,1.38,1.12,2.5,2.5,2.5s2.5-1.12,2.5-2.5v-3.6c0-.28-.22-.5-.5-.5h-1.5v-2.27h7.61v2.27h-1.5c-.28,0-.5,.22-.5,.5v3.6c0,1.38,1.12,2.5,2.5,2.5s2.5-1.12,2.5-2.5v-3.6c0-.28-.22-.5-.5-.5h-1.5v-2.27h4.81l-1.78,15.54h-15.65Zm-2.35-16.54v-1.72h5.37v1.72h-5.37Zm13.98-1.72v1.72h-7.61v-1.72h7.61Zm-9.6,9.09v-3.1h2.99v3.1c0,.82-.67,1.5-1.5,1.5s-1.5-.67-1.5-1.5Zm11.6-3.1v3.1c0,.82-.67,1.5-1.5,1.5s-1.5-.67-1.5-1.5v-3.1h2.99Zm-1-4.27v-1.72h5.37v1.72h-5.37Zm-11.39-4.93h13.17c1.33,0,2.43,.96,2.67,2.21H28.62c.23-1.26,1.34-2.21,2.67-2.21ZM4.3,36.27l-1.78-15.54H7.32v2.27h-1.5c-.28,0-.5,.22-.5,.5v3.6c0,1.38,1.12,2.5,2.5,2.5s2.5-1.12,2.5-2.5v-3.6c0-.28-.22-.5-.5-.5h-1.5v-2.27h7.61v2.27h-1.5c-.28,0-.5,.22-.5,.5v3.6c0,1.38,1.12,2.5,2.5,2.5s2.5-1.12,2.5-2.5v-3.6c0-.28-.22-.5-.5-.5h-1.5v-2.27h4.81l-1.78,15.54H4.3ZM1.94,19.73v-1.72H7.32v1.72H1.94Zm13.98-1.72v1.72h-7.61v-1.72h7.61Zm6,0h.37v1.72h-5.37v-1.72h5Zm-12.61,5.99v3.1c0,.82-.67,1.5-1.5,1.5s-1.5-.67-1.5-1.5v-3.1h2.99Zm8.61,0v3.1c0,.82-.67,1.5-1.5,1.5s-1.5-.67-1.5-1.5v-3.1h2.99ZM5.53,14.8h13.18c1.33,0,2.43,.96,2.67,2.21H2.87c.24-1.26,1.34-2.21,2.67-2.21Zm16.47,12.34l.37-3.21h5.26l.37,3.21h-6Z"/></svg>

<svg id="a2677216-713d-44c8-ab51-632823b13dbf" data-name="ICONS" xmlns="http://www.w3.org/2000/svg" viewBox="0 0 50 50"><path d="M48.56,17h-.43a3.71,3.71,0,0,0-3.66-3.21H31.29A3.69,3.69,0,0,0,27.63,17H27.2a.5.5,0,0,0-.5.5v2.72a.51.51,0,0,0,.5.5h.06l.25,2.2h-5l.25-2.2h.06a.51.51,0,0,0,.5-.5V17.51a.5.5,0,0,0-.5-.5h-.43a3.69,3.69,0,0,0-3.66-3.21H5.53A3.71,3.71,0,0,0,1.87,17H1.44a.5.5,0,0,0-.5.5v2.72a.51.51,0,0,0,.5.5H1.5l1.85,16.1a.51.51,0,0,0,.5.44H20.39a.5.5,0,0,0,.5-.44l1-8.69h6.22l1,8.69a.5.5,0,0,0,.5.44H46.15a.51.51,0,0,0,.5-.44l1.85-16.1h.06a.51.51,0,0,0,.5-.5V17.51A.5.5,0,0,0,48.56,17ZM30.05,36.27,28.27,20.73h4.8V23H31.58a.5.5,0,0,0-.5.5v3.6a2.5,2.5,0,0,0,5,0V23.5a.5.5,0,0,0-.5-.5h-1.5V20.73h7.61V23H40.19a.5.5,0,0,0-.5.5v3.6a2.5,2.5,0,0,0,5,0V23.5a.5.5,0,0,0-.5-.5h-1.5V20.73h4.81L45.7,36.27ZM27.7,19.73V18h5.37v1.72H27.7Zm14-1.72v1.72H34.07V18Zm-9.6,9.09V24h3v3.1a1.5,1.5,0,0,1-3,0ZM43.68,24v3.1a1.5,1.5,0,0,1-3,0V24Zm-1-4.27V18h5.38v1.72H42.68ZM31.29,14.8H44.47A2.71,2.71,0,0,1,47.13,17H28.62A2.72,2.72,0,0,1,31.29,14.8ZM4.3,36.27,2.51,20.73H7.32V23H5.82a.5.5,0,0,0-.5.5v3.6a2.5,2.5,0,0,0,5,0V23.5a.5.5,0,0,0-.5-.5H8.32V20.73h7.61V23h-1.5a.5.5,0,0,0-.5.5v3.6a2.5,2.5,0,0,0,5,0V23.5a.5.5,0,0,0-.5-.5H16.93V20.73h4.8L20,36.27ZM1.94,19.73V18H7.32v1.72H1.94Zm14-1.72v1.72H8.32V18Zm6,0h.38v1.72H16.93V18ZM9.31,24v3.1a1.5,1.5,0,0,1-3,0V24Zm8.61,0v3.1a1.5,1.5,0,0,1-3,0V24ZM5.53,14.8H18.71A2.72,2.72,0,0,1,21.38,17H2.87A2.71,2.71,0,0,1,5.53,14.8ZM22,27.14l.37-3.21h5.26L28,27.14Z"/></svg>
